src/lib/packages/icons/src/assets/filled/folder-upload.svg

<svg width="24" height="24" viewBox="0 0 24 24" fill="none" xmlns="http://www.w3.org/2000/svg">
<path d="M18 7H13L10 4H6C4 4 3 5 3 7V17C3 19 4 20 6 20H18C20 20 21 19 21 17V10C21 8 20 7 18 7ZM12.03 13.53C11.884 13.676 11.692 13.75 11.5 13.75C11.308 13.75 11.116 13.677 10.97 13.53L10.25 12.81V16C10.25 16.414 9.914 16.75 9.5 16.75C9.086 16.75 8.75 16.414 8.75 16V12.811L8.03003 13.531C7.73703 13.824 7.26199 13.824 6.96899 13.531C6.67599 13.238 6.67599 12.763 6.96899 12.47L8.96899 10.47C9.03799 10.401 9.12089 10.346 9.21289 10.308C9.39589 10.232 9.60289 10.232 9.78589 10.308C9.87789 10.346 9.96103 10.401 10.03 10.47L12.03 12.47C12.323 12.762 12.323 13.238 12.03 13.53Z" fill="currentColor"/>
</svg>

<svg xmlns="http://www.w3.org/2000/svg" width="24" height="24" fill="none"><path fill="currentColor" d="M18 7h-5l-3-3H6C4 4 3 5 3 7v10c0 2 1 3 3 3h12c2 0 3-1 3-3v-7c0-2-1-3-3-3Zm-5.97 6.53a.748.748 0 0 1-1.06 0l-.72-.72V16a.75.75 0 0 1-1.5 0v-3.189l-.72.72a.75.75 0 0 1-1.061-1.061l2-2a.749.749 0 0 1 .817-.162.75.75 0 0 1 .244.162l2 2a.749.749 0 0 1 0 1.06Z"/></svg>
